!!!COM: Corelli, Arcangelo
!!!OPR: Sonata da chiesa
!!!OPS: 1
!!!ONM: 11
!!!OMV: 1
!!!OMD: Grave
**kern	**fb	**kern	**kern	**kern
*part4	*part4	*part3	*part2	*part1
*staff4	*	*staff3	*staff2	*staff1
*I"Organo	*	*I"Violone	*I"Violino II	*I"Violino I
*clefF4	*	*clefF4	*clefG2	*clefG2
*k[b-]	*	*k[b-]	*k[b-]	*k[b-]
*d:	*	*d:	*d:	*d:
*M4/4	*	*M4/4	*M4/4	*M4/4
*met(c)	*	*met(c)	*met(c)	*met(c)
=1	=1	=1	=1	=1
2D	5	2D	4dd	4ff
.	4 2	.	4ee	4gg
4D	5	4D	4ff	4aa
4E	#6\	4E	4ee	4gg
=	=	=	=	=
4F	6	4F	2dd	2ff
4G	7	4G	.	.
2A	#	2A	4cc#X	4ee
.	.	.	4cc#	[4aa
=	=	=	=	=
2B-	7	2B-	2dd	4aa]
.	6	.	.	4gg
2A	#	2A	2cc#X	2aa
=	=	=	=	=
2AA	5 n	2AA	4a	4cc
.	4 #2|	.	4bn	4dd
4AA	5	4AA	4ccni	4ee
4BBn	#6\	4BBn	4b	4dd
=	=	=	=	=
4C	6	4C	2a	2cc
4D	7	4D	.	.
2E	#	2E	4g#X	4bn
.	.	.	4g#	[4ee
=	=	=	=	=
2F	7	2F	2a	4ee]
.	6	.	.	4dd
4E	#	4E	4g#X	4ee
4E	.	4E	[4ee	4g#X
=	=	=	=	=
4F#X	7	4F#X	4ee]	4a
4G#X	5	4G#X	2dd	4bn
4A	5 4	4A	.	4e
4AA	3	4AA	[4cc	4ee
=	=	=	=	=
2D	7	2D	4cc]	2.ff
.	6	.	(8b-L	.
.	.	.	8aJ)	.
2E	9 #	2E	2g#X	.
.	8	.	.	(8eeL
.	.	.	.	8ddJ)
=	=	=	=	=
2AA	.	2AA	4.a	(8ccL
.	.	.	.	8ddJ)
.	.	.	.	2ee
.	.	.	8gni	.
2D	9 #	2D	(8f#XL	.
.	.	.	8g#X)	.
.	8	.	(8a	[4dd
.	.	.	8bnJ)	.
=	=	=	=	=
2E	7 #	2E	8g#XL	4dd]
.	.	.	8eJ	.
.	6 4	.	2a	4cc
2EE	#5\ 4	2EE	.	2bn
.	#	.	4g#	.
=	=	=	=	=
2AA	-	2AA	4a	4a
.	#	.	4cc#X	2aa
4BBn	7	4BBn	4dd	.
4C#X	5	4C#X	4ee	[4gg
=	=	=	=	=
2D	5 4	2D	4a	4gg]
.	3	.	4aa	2ff
2GG	7	2GG	[2bb-	.
.	-r6	.	.	(8ee-XL
.	.	.	.	8ddJ)
=	=	=	=	=
2AA	9 #	2AA	4bb-]	2cc#X
.	8	.	(8aaL	.
.	.	.	8ggJ)	.
2D	.	2D	(8ffL	4.dd
.	.	.	8ggJ)	.
.	.	.	[4aa	.
.	.	.	.	8ccn
=	=	=	=	=
2G	9 n	2G	4aa]	(8bnL
.	.	.	.	8cc#X)
.	8	.	2gg	(8dd
.	.	.	.	8eeJ)
2A	7 #	2A	.	8cc#L
.	.	.	.	8aJ
.	6 4	.	4ff	[4dd
=	=	=	=	=
2AA	5 4	2AA	2ee	4dd]
.	#	.	.	4cc#X
2D	5	2D	4dd	4.dd
.	6	.	[4b-	.
.	.	.	.	8ff
=	=	=	=	=
2C	7	2C	8b-L]	4.ee
.	.	.	(16ccL	.
.	.	.	16b-JJ)	.
.	6	.	[4a	.
.	.	.	.	(16ffLL
.	.	.	.	16eeJJ)
2BB-	7	2BB-	8aL]	4.dd
.	.	.	(16b-L	.
.	.	.	16aJJ)	.
.	6	.	[4g	.
.	.	.	.	(16eeLL
.	.	.	.	16ddJJ)
=	=	=	=	=
1AA	7 #	1AA	4g]	8cc#XL
.	.	.	.	8aJ
.	6 4	.	4f	2dd
.	5 4	.	2e	.
.	#	.	.	4cc#
=	=	=	=	=
1D	.	1D	1d	1dd
==	==	==	==	==
*-	*-	*-	*-	*-
!!!system-decoration: [{s1,s2},s3,s4]
!!!YEM: CC BY-NC-SA 4.0; CCARH; DCML
!!!RDF**kern: i = editorial accidental